images/3232607.svg

<?xml version="1.0" encoding="UTF-8"?>
<svg xmlns="http://www.w3.org/2000/svg" xmlns:xlink="http://www.w3.org/1999/xlink" width="300pt" height="300pt" viewBox="0 0 300 300" version="1.1">
<defs>
<g>
<symbol overflow="visible" id="glyph0-0">
<path style="stroke:none;" d="M 0.453125 1.59375 L 0.453125 -6.34375 L 4.953125 -6.34375 L 4.953125 1.59375 Z M 0.953125 1.09375 L 4.453125 1.09375 L 4.453125 -5.84375 L 0.953125 -5.84375 Z M 0.953125 1.09375 "/>
</symbol>
<symbol overflow="visible" id="glyph0-1">
<path style="stroke:none;" d="M 0.890625 -6.5625 L 2.078125 -6.5625 L 4.984375 -1.078125 L 4.984375 -6.5625 L 5.84375 -6.5625 L 5.84375 0 L 4.65625 0 L 1.75 -5.484375 L 1.75 0 L 0.890625 0 Z M 0.890625 -6.5625 "/>
</symbol>
<symbol overflow="visible" id="glyph0-2">
<path style="stroke:none;" d="M 3.546875 -5.953125 C 2.898438 -5.953125 2.382812 -5.710938 2 -5.234375 C 1.625 -4.753906 1.4375 -4.101562 1.4375 -3.28125 C 1.4375 -2.445312 1.625 -1.789062 2 -1.3125 C 2.382812 -0.832031 2.898438 -0.59375 3.546875 -0.59375 C 4.191406 -0.59375 4.703125 -0.832031 5.078125 -1.3125 C 5.453125 -1.789062 5.640625 -2.445312 5.640625 -3.28125 C 5.640625 -4.101562 5.453125 -4.753906 5.078125 -5.234375 C 4.703125 -5.710938 4.191406 -5.953125 3.546875 -5.953125 Z M 3.546875 -6.6875 C 4.460938 -6.6875 5.195312 -6.375 5.75 -5.75 C 6.300781 -5.132812 6.578125 -4.3125 6.578125 -3.28125 C 6.578125 -2.238281 6.300781 -1.410156 5.75 -0.796875 C 5.195312 -0.179688 4.460938 0.125 3.546875 0.125 C 2.617188 0.125 1.878906 -0.179688 1.328125 -0.796875 C 0.773438 -1.410156 0.5 -2.238281 0.5 -3.28125 C 0.5 -4.3125 0.773438 -5.132812 1.328125 -5.75 C 1.878906 -6.375 2.617188 -6.6875 3.546875 -6.6875 Z M 3.546875 -6.6875 "/>
</symbol>
<symbol overflow="visible" id="glyph0-3">
<path style="stroke:none;" d="M 0.890625 -6.5625 L 1.765625 -6.5625 L 1.765625 -3.875 L 5 -3.875 L 5 -6.5625 L 5.890625 -6.5625 L 5.890625 0 L 5 0 L 5 -3.125 L 1.765625 -3.125 L 1.765625 0 L 0.890625 0 Z M 0.890625 -6.5625 "/>
</symbol>
</g>
</defs>
<g id="surface34057">
<rect x="0" y="0" width="300" height="300" style="fill:rgb(100%,100%,100%);fill-opacity:1;stroke:none;"/>
<path style="fill:none;stroke-width:1.2;stroke-linecap:butt;stroke-linejoin:miter;stroke:rgb(0%,0%,0%);stroke-opacity:1;stroke-miterlimit:10;" d="M 264.75 189.964844 L 254.730469 186.28125 "/>
<path style="fill:none;stroke-width:1.2;stroke-linecap:butt;stroke-linejoin:miter;stroke:rgb(0%,0%,100%);stroke-opacity:1;stroke-miterlimit:10;" d="M 254.730469 186.28125 L 244.714844 182.601562 "/>
<path style="fill:none;stroke-width:1.2;stroke-linecap:butt;stroke-linejoin:miter;stroke:rgb(0%,0%,100%);stroke-opacity:1;stroke-miterlimit:10;" d="M 244.714844 182.601562 L 236.519531 189.4375 "/>
<path style="fill:none;stroke-width:1.2;stroke-linecap:butt;stroke-linejoin:miter;stroke:rgb(0%,0%,0%);stroke-opacity:1;stroke-miterlimit:10;" d="M 236.519531 189.4375 L 228.320312 196.273438 "/>
<path style="fill:none;stroke-width:1.2;stroke-linecap:butt;stroke-linejoin:miter;stroke:rgb(0%,0%,100%);stroke-opacity:1;stroke-miterlimit:10;" d="M 244.714844 182.601562 L 242.894531 172.085938 "/>
<path style="fill:none;stroke-width:1.2;stroke-linecap:butt;stroke-linejoin:miter;stroke:rgb(0%,0%,0%);stroke-opacity:1;stroke-miterlimit:10;" d="M 242.894531 172.085938 L 241.070312 161.570312 "/>
<path style=" stroke:none;fill-rule:nonzero;fill:rgb(100%,100%,100%);fill-opacity:1;" d="M 241.714844 177.101562 L 248.714844 177.101562 L 248.714844 188.101562 L 241.714844 188.101562 Z M 241.714844 177.101562 "/>
<g style="fill:rgb(0%,0%,100%);fill-opacity:1;">
  <use xlink:href="#glyph0-1" x="241.714844" y="185.764648"/>
</g>
<path style="fill:none;stroke-width:1.2;stroke-linecap:butt;stroke-linejoin:miter;stroke:rgb(0%,0%,0%);stroke-opacity:1;stroke-miterlimit:10;" d="M 242.679688 163.496094 L 250.878906 156.664062 "/>
<path style="fill:none;stroke-width:1.2;stroke-linecap:butt;stroke-linejoin:miter;stroke:rgb(100%,0%,0%);stroke-opacity:1;stroke-miterlimit:10;" d="M 250.878906 156.664062 L 259.074219 149.828125 "/>
<path style="fill:none;stroke-width:1.2;stroke-linecap:butt;stroke-linejoin:miter;stroke:rgb(0%,0%,0%);stroke-opacity:1;stroke-miterlimit:10;" d="M 239.464844 159.640625 L 247.660156 152.804688 "/>
<path style="fill:none;stroke-width:1.2;stroke-linecap:butt;stroke-linejoin:miter;stroke:rgb(100%,0%,0%);stroke-opacity:1;stroke-miterlimit:10;" d="M 247.660156 152.804688 L 255.855469 145.96875 "/>
<path style="fill:none;stroke-width:1.2;stroke-linecap:butt;stroke-linejoin:miter;stroke:rgb(0%,0%,0%);stroke-opacity:1;stroke-miterlimit:10;" d="M 241.070312 161.570312 L 221.035156 154.207031 "/>
<path style=" stroke:none;fill-rule:nonzero;fill:rgb(100%,100%,100%);fill-opacity:1;" d="M 253.464844 142.398438 L 261.464844 142.398438 L 261.464844 153.398438 L 253.464844 153.398438 Z M 253.464844 142.398438 "/>
<g style="fill:rgb(100%,0%,0%);fill-opacity:1;">
  <use xlink:href="#glyph0-2" x="253.464844" y="151.061523"/>
</g>
<path style="fill:none;stroke-width:1.2;stroke-linecap:butt;stroke-linejoin:miter;stroke:rgb(0%,0%,0%);stroke-opacity:1;stroke-miterlimit:10;" d="M 221.035156 154.207031 L 204.644531 167.878906 "/>
<path style="fill:none;stroke-width:1.2;stroke-linecap:butt;stroke-linejoin:miter;stroke:rgb(0%,0%,0%);stroke-opacity:1;stroke-miterlimit:10;" d="M 216.179688 151.71875 L 203.066406 162.652344 "/>
<path style="fill:none;stroke-width:1.2;stroke-linecap:butt;stroke-linejoin:miter;stroke:rgb(0%,0%,0%);stroke-opacity:1;stroke-miterlimit:10;" d="M 217.394531 133.175781 L 221.035156 154.207031 "/>
<path style="fill:none;stroke-width:1.2;stroke-linecap:butt;stroke-linejoin:miter;stroke:rgb(0%,0%,0%);stroke-opacity:1;stroke-miterlimit:10;" d="M 204.644531 167.878906 L 184.609375 160.515625 "/>
<path style="fill:none;stroke-width:1.2;stroke-linecap:butt;stroke-linejoin:miter;stroke:rgb(0%,0%,0%);stroke-opacity:1;stroke-miterlimit:10;" d="M 184.609375 160.515625 L 180.964844 139.484375 "/>
<path style="fill:none;stroke-width:1.2;stroke-linecap:butt;stroke-linejoin:miter;stroke:rgb(0%,0%,0%);stroke-opacity:1;stroke-miterlimit:10;" d="M 189.191406 157.554688 L 186.277344 140.730469 "/>
<path style="fill:none;stroke-width:1.2;stroke-linecap:butt;stroke-linejoin:miter;stroke:rgb(0%,0%,0%);stroke-opacity:1;stroke-miterlimit:10;" d="M 180.964844 139.484375 L 197.359375 125.8125 "/>
<path style="fill:none;stroke-width:1.2;stroke-linecap:butt;stroke-linejoin:miter;stroke:rgb(0%,0%,0%);stroke-opacity:1;stroke-miterlimit:10;" d="M 180.964844 139.484375 L 160.929688 132.121094 "/>
<path style="fill:none;stroke-width:1.2;stroke-linecap:butt;stroke-linejoin:miter;stroke:rgb(0%,0%,0%);stroke-opacity:1;stroke-miterlimit:10;" d="M 197.359375 125.8125 L 217.394531 133.175781 "/>
<path style="fill:none;stroke-width:1.2;stroke-linecap:butt;stroke-linejoin:miter;stroke:rgb(0%,0%,0%);stroke-opacity:1;stroke-miterlimit:10;" d="M 197.628906 131.265625 L 213.660156 137.152344 "/>
<path style="fill:none;stroke-width:1.2;stroke-linecap:butt;stroke-linejoin:miter;stroke:rgb(0%,0%,0%);stroke-opacity:1;stroke-miterlimit:10;" d="M 160.929688 132.121094 L 159.109375 121.605469 "/>
<path style="fill:none;stroke-width:1.2;stroke-linecap:butt;stroke-linejoin:miter;stroke:rgb(0%,0%,100%);stroke-opacity:1;stroke-miterlimit:10;" d="M 159.109375 121.605469 L 157.289062 111.089844 "/>
<path style="fill:none;stroke-width:1.2;stroke-linecap:butt;stroke-linejoin:miter;stroke:rgb(0%,0%,0%);stroke-opacity:1;stroke-miterlimit:10;" d="M 155.617188 130.875 L 154.160156 122.464844 "/>
<path style="fill:none;stroke-width:1.2;stroke-linecap:butt;stroke-linejoin:miter;stroke:rgb(0%,0%,100%);stroke-opacity:1;stroke-miterlimit:10;" d="M 154.160156 122.464844 L 152.703125 114.050781 "/>
<path style="fill:none;stroke-width:1.2;stroke-linecap:butt;stroke-linejoin:miter;stroke:rgb(0%,0%,100%);stroke-opacity:1;stroke-miterlimit:10;" d="M 144.535156 145.792969 L 152.734375 138.957031 "/>
<path style="fill:none;stroke-width:1.2;stroke-linecap:butt;stroke-linejoin:miter;stroke:rgb(0%,0%,0%);stroke-opacity:1;stroke-miterlimit:10;" d="M 152.734375 138.957031 L 160.929688 132.121094 "/>
<path style="fill:none;stroke-width:1.2;stroke-linecap:butt;stroke-linejoin:miter;stroke:rgb(0%,0%,100%);stroke-opacity:1;stroke-miterlimit:10;" d="M 157.289062 111.089844 L 147.269531 107.410156 "/>
<path style="fill:none;stroke-width:1.2;stroke-linecap:butt;stroke-linejoin:miter;stroke:rgb(0%,0%,0%);stroke-opacity:1;stroke-miterlimit:10;" d="M 147.269531 107.410156 L 137.25 103.726562 "/>
<path style=" stroke:none;fill-rule:nonzero;fill:rgb(100%,100%,100%);fill-opacity:1;" d="M 154.289062 105.589844 L 161.289062 105.589844 L 161.289062 116.589844 L 154.289062 116.589844 Z M 154.289062 105.589844 "/>
<g style="fill:rgb(0%,0%,100%);fill-opacity:1;">
  <use xlink:href="#glyph0-1" x="154.289062" y="114.25293"/>
</g>
<path style="fill:none;stroke-width:1.2;stroke-linecap:butt;stroke-linejoin:miter;stroke:rgb(0%,0%,0%);stroke-opacity:1;stroke-miterlimit:10;" d="M 137.25 103.726562 L 120.859375 117.398438 "/>
<path style="fill:none;stroke-width:1.2;stroke-linecap:butt;stroke-linejoin:miter;stroke:rgb(0%,0%,0%);stroke-opacity:1;stroke-miterlimit:10;" d="M 138.828125 108.953125 L 125.714844 119.890625 "/>
<path style="fill:none;stroke-width:1.2;stroke-linecap:butt;stroke-linejoin:miter;stroke:rgb(0%,0%,0%);stroke-opacity:1;stroke-miterlimit:10;" d="M 120.859375 117.398438 L 124.5 138.429688 "/>
<path style="fill:none;stroke-width:1.2;stroke-linecap:butt;stroke-linejoin:miter;stroke:rgb(0%,0%,0%);stroke-opacity:1;stroke-miterlimit:10;" d="M 124.5 138.429688 L 134.519531 142.113281 "/>
<path style="fill:none;stroke-width:1.2;stroke-linecap:butt;stroke-linejoin:miter;stroke:rgb(0%,0%,100%);stroke-opacity:1;stroke-miterlimit:10;" d="M 134.519531 142.113281 L 144.535156 145.792969 "/>
<path style="fill:none;stroke-width:1.2;stroke-linecap:butt;stroke-linejoin:miter;stroke:rgb(0%,0%,0%);stroke-opacity:1;stroke-miterlimit:10;" d="M 128.238281 134.453125 L 136.25 137.398438 "/>
<path style="fill:none;stroke-width:1.2;stroke-linecap:butt;stroke-linejoin:miter;stroke:rgb(0%,0%,100%);stroke-opacity:1;stroke-miterlimit:10;" d="M 136.25 137.398438 L 144.265625 140.34375 "/>
<path style="fill:none;stroke-width:1.2;stroke-linecap:butt;stroke-linejoin:miter;stroke:rgb(0%,0%,0%);stroke-opacity:1;stroke-miterlimit:10;" d="M 124.5 138.429688 L 116.304688 145.265625 "/>
<path style="fill:none;stroke-width:1.2;stroke-linecap:butt;stroke-linejoin:miter;stroke:rgb(0%,0%,100%);stroke-opacity:1;stroke-miterlimit:10;" d="M 116.304688 145.265625 L 108.109375 152.101562 "/>
<path style=" stroke:none;fill-rule:nonzero;fill:rgb(100%,100%,100%);fill-opacity:1;" d="M 141.535156 140.292969 L 148.535156 140.292969 L 148.535156 151.292969 L 141.535156 151.292969 Z M 141.535156 140.292969 "/>
<g style="fill:rgb(0%,0%,100%);fill-opacity:1;">
  <use xlink:href="#glyph0-1" x="141.535156" y="148.956055"/>
</g>
<path style="fill:none;stroke-width:1.2;stroke-linecap:butt;stroke-linejoin:miter;stroke:rgb(0%,0%,100%);stroke-opacity:1;stroke-miterlimit:10;" d="M 108.109375 152.101562 L 98.089844 148.421875 "/>
<path style="fill:none;stroke-width:1.2;stroke-linecap:butt;stroke-linejoin:miter;stroke:rgb(0%,0%,0%);stroke-opacity:1;stroke-miterlimit:10;" d="M 98.089844 148.421875 L 88.070312 144.738281 "/>
<path style=" stroke:none;fill-rule:nonzero;fill:rgb(100%,100%,100%);fill-opacity:1;" d="M 101.109375 146.601562 L 115.109375 146.601562 L 115.109375 157.601562 L 101.109375 157.601562 Z M 101.109375 146.601562 "/>
<g style="fill:rgb(0%,0%,100%);fill-opacity:1;">
  <use xlink:href="#glyph0-1" x="101.109375" y="155.264648"/>
  <use xlink:href="#glyph0-3" x="108.086914" y="155.264648"/>
</g>
<path style="fill:none;stroke-width:1.2;stroke-linecap:butt;stroke-linejoin:miter;stroke:rgb(0%,0%,0%);stroke-opacity:1;stroke-miterlimit:10;" d="M 88.070312 144.738281 L 71.679688 158.410156 "/>
<path style="fill:none;stroke-width:1.2;stroke-linecap:butt;stroke-linejoin:miter;stroke:rgb(0%,0%,0%);stroke-opacity:1;stroke-miterlimit:10;" d="M 71.679688 158.410156 L 51.644531 151.046875 "/>
<path style="fill:none;stroke-width:1.2;stroke-linecap:butt;stroke-linejoin:miter;stroke:rgb(0%,0%,0%);stroke-opacity:1;stroke-miterlimit:10;" d="M 67.941406 162.386719 L 51.914062 156.5 "/>
<path style="fill:none;stroke-width:1.2;stroke-linecap:butt;stroke-linejoin:miter;stroke:rgb(0%,0%,0%);stroke-opacity:1;stroke-miterlimit:10;" d="M 75.320312 179.441406 L 71.679688 158.410156 "/>
<path style="fill:none;stroke-width:1.2;stroke-linecap:butt;stroke-linejoin:miter;stroke:rgb(0%,0%,0%);stroke-opacity:1;stroke-miterlimit:10;" d="M 51.644531 151.046875 L 35.25 164.71875 "/>
<path style="fill:none;stroke-width:1.2;stroke-linecap:butt;stroke-linejoin:miter;stroke:rgb(0%,0%,0%);stroke-opacity:1;stroke-miterlimit:10;" d="M 35.25 164.71875 L 38.890625 185.75 "/>
<path style="fill:none;stroke-width:1.2;stroke-linecap:butt;stroke-linejoin:miter;stroke:rgb(0%,0%,0%);stroke-opacity:1;stroke-miterlimit:10;" d="M 40.5625 165.964844 L 43.476562 182.789062 "/>
<path style="fill:none;stroke-width:1.2;stroke-linecap:butt;stroke-linejoin:miter;stroke:rgb(0%,0%,0%);stroke-opacity:1;stroke-miterlimit:10;" d="M 38.890625 185.75 L 58.929688 193.113281 "/>
<path style="fill:none;stroke-width:1.2;stroke-linecap:butt;stroke-linejoin:miter;stroke:rgb(0%,0%,0%);stroke-opacity:1;stroke-miterlimit:10;" d="M 58.929688 193.113281 L 75.320312 179.441406 "/>
<path style="fill:none;stroke-width:1.2;stroke-linecap:butt;stroke-linejoin:miter;stroke:rgb(0%,0%,0%);stroke-opacity:1;stroke-miterlimit:10;" d="M 57.351562 187.886719 L 70.464844 176.953125 "/>
</g>
</svg>

<svg xmlns="http://www.w3.org/2000/svg" xmlns:xlink="http://www.w3.org/1999/xlink" width="300pt" height="300pt" viewBox="0 0 300 300"><defs><symbol overflow="visible"><path d="M.453 1.594v-7.938h4.5v7.938zm.5-.5h3.5v-6.938h-3.5zm0 0"/></symbol><symbol overflow="visible" id="a"><path d="M.89-6.563H2.08l2.906 5.485v-5.484h.86V0H4.656L1.75-5.484V0H.89zm0 0"/></symbol><symbol overflow="visible" id="b"><path d="M3.547-5.953c-.65 0-1.164.242-1.547.72-.375.48-.563 1.13-.563 1.952 0 .835.188 1.49.563 1.967.383.48.898.72 1.547.72.644 0 1.156-.24 1.53-.72.376-.476.564-1.132.564-1.968 0-.822-.187-1.474-.562-1.954-.375-.477-.887-.72-1.53-.72zm0-.734c.914 0 1.648.312 2.203.937.55.617.828 1.438.828 2.47 0 1.042-.277 1.87-.828 2.483-.555.617-1.29.922-2.203.922-.93 0-1.668-.305-2.22-.922C.774-1.41.5-2.237.5-3.28c0-1.033.273-1.853.828-2.47.55-.625 1.29-.938 2.22-.938zm0 0"/></symbol><symbol overflow="visible" id="c"><path d="M.89-6.563h.876v2.688H5v-2.688h.89V0H5v-3.125H1.766V0H.89zm0 0"/></symbol></defs><g><path fill="#fff" d="M0 0h300v300H0z"/><path d="M264.75 189.965l-10.02-3.684" stroke-width="1.2" stroke="#000" stroke-miterlimit="10" fill="none"/><path d="M254.73 186.28l-10.015-3.678M244.715 182.602l-8.195 6.835" stroke-width="1.2" stroke="#00f" stroke-miterlimit="10" fill="none"/><path d="M236.52 189.438l-8.2 6.835" stroke-width="1.2" stroke="#000" stroke-miterlimit="10" fill="none"/><path d="M244.715 182.602l-1.82-10.516" stroke-width="1.2" stroke="#00f" stroke-miterlimit="10" fill="none"/><path d="M242.895 172.086l-1.825-10.516" stroke-width="1.2" stroke="#000" stroke-miterlimit="10" fill="none"/><path d="M241.715 177.102h7v11h-7zm0 0" fill="#fff"/><use xlink:href="#a" x="241.715" y="185.765" fill="#00f"/><path d="M242.68 163.496l8.2-6.832" stroke-width="1.2" stroke="#000" stroke-miterlimit="10" fill="none"/><path d="M250.88 156.664l8.194-6.836" stroke-width="1.2" stroke="#f00" stroke-miterlimit="10" fill="none"/><path d="M239.465 159.64l8.195-6.835" stroke-width="1.2" stroke="#000" stroke-miterlimit="10" fill="none"/><path d="M247.66 152.805l8.195-6.836" stroke-width="1.2" stroke="#f00" stroke-miterlimit="10" fill="none"/><path d="M241.07 161.57l-20.035-7.363" stroke-width="1.2" stroke="#000" stroke-miterlimit="10" fill="none"/><path d="M253.465 142.398h8v11h-8zm0 0" fill="#fff"/><use xlink:href="#b" x="253.465" y="151.062" fill="#f00"/><path d="M221.035 154.207l-16.39 13.672M216.18 151.72l-13.114 10.932M217.395 133.176l3.64 21.03M204.645 167.88l-20.036-7.364M184.61 160.516l-3.645-21.032M189.19 157.555l-2.913-16.825M180.965 139.484l16.394-13.672M180.965 139.484l-20.035-7.363M197.36 125.813l20.035 7.363M197.63 131.266l16.03 5.886M160.93 132.12l-1.82-10.515" stroke-width="1.2" stroke="#000" stroke-miterlimit="10" fill="none"/><path d="M159.11 121.605l-1.82-10.515" stroke-width="1.2" stroke="#00f" stroke-miterlimit="10" fill="none"/><path d="M155.617 130.875l-1.457-8.41" stroke-width="1.2" stroke="#000" stroke-miterlimit="10" fill="none"/><path d="M154.16 122.465l-1.457-8.414M144.535 145.793l8.2-6.836" stroke-width="1.2" stroke="#00f" stroke-miterlimit="10" fill="none"/><path d="M152.734 138.957l8.196-6.836" stroke-width="1.2" stroke="#000" stroke-miterlimit="10" fill="none"/><path d="M157.29 111.09l-10.02-3.68" stroke-width="1.2" stroke="#00f" stroke-miterlimit="10" fill="none"/><path d="M147.27 107.41l-10.02-3.683" stroke-width="1.2" stroke="#000" stroke-miterlimit="10" fill="none"/><path d="M154.29 105.59h7v11h-7zm0 0" fill="#fff"/><use xlink:href="#a" x="154.289" y="114.253" fill="#00f"/><path d="M137.25 103.727l-16.39 13.67M138.828 108.953l-13.113 10.938M120.86 117.398l3.64 21.032M124.5 138.43l10.02 3.683" stroke-width="1.2" stroke="#000" stroke-miterlimit="10" fill="none"/><path d="M134.52 142.113l10.015 3.68" stroke-width="1.2" stroke="#00f" stroke-miterlimit="10" fill="none"/><path d="M128.238 134.453l8.012 2.945" stroke-width="1.2" stroke="#000" stroke-miterlimit="10" fill="none"/><path d="M136.25 137.398l8.016 2.946" stroke-width="1.2" stroke="#00f" stroke-miterlimit="10" fill="none"/><path d="M124.5 138.43l-8.195 6.836" stroke-width="1.2" stroke="#000" stroke-miterlimit="10" fill="none"/><path d="M116.305 145.266l-8.196 6.836" stroke-width="1.2" stroke="#00f" stroke-miterlimit="10" fill="none"/><path d="M141.535 140.293h7v11h-7zm0 0" fill="#fff"/><use xlink:href="#a" x="141.535" y="148.956" fill="#00f"/><path d="M108.11 152.102l-10.02-3.68" stroke-width="1.2" stroke="#00f" stroke-miterlimit="10" fill="none"/><path d="M98.09 148.422l-10.02-3.684" stroke-width="1.2" stroke="#000" stroke-miterlimit="10" fill="none"/><path d="M101.11 146.602h14v11h-14zm0 0" fill="#fff"/><g fill="#00f"><use xlink:href="#a" x="101.109" y="155.265"/><use xlink:href="#c" x="108.087" y="155.265"/></g><path d="M88.07 144.738L71.68 158.41M71.68 158.41l-20.035-7.363M67.94 162.387L51.915 156.5M75.32 179.44l-3.64-21.03M51.645 151.047L35.25 164.72M35.25 164.72l3.64 21.03M40.563 165.965l2.914 16.824M38.89 185.75l20.04 7.363M58.93 193.113l16.39-13.672M57.352 187.887l13.113-10.934" stroke-width="1.2" stroke="#000" stroke-miterlimit="10" fill="none"/></g></svg>
